X: 27334
T: Mist In The Morning
R: jig
M: 6/8
K: Gmajor
B2 G GDG|G2 G ABc|B2 G GDG|A2 B cBA|
B2 G GDG|G2 G ABc|B2 c dcB|A2 B cBA:|
|:Bcd ded|ded d2c|Bcd dBd|e2 f g2 d|
Bcd ded|ded def|gfe dcB|A2 B cBA:|

